OBS Studio/Fluent Dark Grey/arrows/collapse.svg

<svg width="24" height="24" fill="none" viewBox="0 0 24 24" xmlns="http://www.w3.org/2000/svg"><path d="m4.2929 8.2929c0.39053-0.39052 1.0237-0.39052 1.4142 0l6.2929 6.2929 6.2929-6.2929c0.3905-0.39052 1.0237-0.39052 1.4142 0 0.3905 0.39053 0.3905 1.0237 0 1.4142l-7 7c-0.3905 0.3905-1.0237 0.3905-1.4142 0l-7-7c-0.39052-0.39053-0.39052-1.0237 0-1.4142z" fill="#fff"/></svg>

<svg width="24" height="24" viewBox="0 0 24 24" fill="none" xmlns="http://www.w3.org/2000/svg">
<path d="M4.29289 8.29289C4.68342 7.90237 5.31658 7.90237 5.70711 8.29289L12 14.5858L18.2929 8.29289C18.6834 7.90237 19.3166 7.90237 19.7071 8.29289C20.0976 8.68342 20.0976 9.31658 19.7071 9.70711L12.7071 16.7071C12.3166 17.0976 11.6834 17.0976 11.2929 16.7071L4.29289 9.70711C3.90237 9.31658 3.90237 8.68342 4.29289 8.29289Z" fill="white"/>
</svg>
